ES2T1/53/aimg/i4-dialogo2.svg

<svg clip-rule="evenodd" fill-rule="evenodd" stroke-miterlimit="10" viewBox="0 0 99 57" xmlns="http://www.w3.org/2000/svg"><g fill-rule="nonzero" transform="translate(-79 -118)"><path d="m160.654 145.123h-53.318c-.044-6.436 1.847-12.84 3.729-19.053-5.126 5.654-9.362 12.11-12.531 19.053h-2.121c-5.306 0-9.647 4.341-9.647 9.646v2.522c0 5.305 4.341 9.646 9.647 9.646h64.241c5.305 0 9.646-4.341 9.646-9.646v-2.522c0-5.305-4.341-9.646-9.646-9.646z" fill="#fff" stroke="#231f20" stroke-width="1.44"/><g fill="#231f20"><path d="m94.422 155.134h1.049v-1.251h-1.049zm-.01.722c-.01.356-.058.741-.731 1.386-.53.491-1.107 1.03-1.107 1.867 0 1.059.876 2.031 2.185 2.031 1.126 0 2.233-.741 2.319-2.108v-.212h-1.097c0 .077-.01.164-.019.241-.097.654-.559 1.039-1.155 1.039-.674 0-1.088-.49-1.088-1.097.01-.491.318-.808.809-1.299.721-.693.924-1.194.943-1.848z"/><path d="m97.839 157.011c.019 1.376.924 2.242 2.338 2.242 1.521 0 2.301-1.001 2.301-2.156s-.828-1.607-1.713-1.982c-1.146-.424-1.675-.597-1.675-1.29 0-.606.5-1.001 1.078-1.001.818 0 .991.616 1.068 1.001h1.117c-.087-1.463-1.232-1.964-2.147-1.964-1.116 0-2.252.722-2.242 2.051 0 1.337 1.241 1.751 1.8 1.934.914.337 1.588.52 1.588 1.309 0 .635-.549 1.136-1.184 1.136-.376 0-1.126-.212-1.203-1.28z"/><path d="m108.561 156.818c.086-.876-.173-1.694-.789-2.319-.501-.491-1.184-.77-1.935-.77-1.588 0-2.762 1.28-2.762 2.781 0 1.386 1.058 2.763 2.772 2.763.529 0 1.049-.145 1.491-.443.443-.289.809-.722 1.059-1.299h-1.039c-.289.548-.809.885-1.511.885-.79 0-1.714-.539-1.762-1.598zm-4.457-.779c.049-.713.713-1.454 1.733-1.454.991-.019 1.684.761 1.732 1.454z"/><path d="m109.543 159.119h1.001v-2.83c0-1.04.49-1.559 1.434-1.559h.067v-1.001c-.712.009-1.261.308-1.559.924v-.77h-.943z"/><path d="m118.109 153.883h-1.001v.924c-.241-.501-.905-1.078-1.944-1.078-1.521 0-2.686 1.174-2.686 2.772 0 1.463 1.001 2.772 2.686 2.772.827 0 1.578-.366 1.944-1.069v.915h1.001zm-4.63 2.627c0-.981.712-1.848 1.81-1.848.837 0 1.424.472 1.674 1.078.116.241.164.51.154.78-.009.269-.067.539-.182.78-.26.596-.828 1.039-1.627 1.039-1.271 0-1.819-1.039-1.829-1.819zm.77-3.85.308.616 2.329-1.174-.336-.731z"/><path d="m127.089 153.883h-1.001v2.926c0 .895-.452 1.52-1.434 1.53-1.03 0-1.396-.674-1.396-1.617v-2.839h-1.001v3.07c0 1.088.433 2.31 2.118 2.32.933.009 1.52-.424 1.771-.963v.809h.943z"/><path d="m128.398 159.119h1.001v-2.917c0-.904.452-1.52 1.434-1.53 1.02-.01 1.386.664 1.386 1.607v2.84h1.011v-3.071c0-1.087-.443-2.3-2.118-2.319-.933-.01-1.521.423-1.771.962v-.808h-.943z"/><path d="m142.653 153.883h-1.001v.885c-.289-.577-1.011-1.039-1.887-1.039-1.521 0-2.705 1.155-2.705 2.791 0 1.559 1.136 2.753 2.705 2.753.943 0 1.579-.491 1.887-1.078v.539c0 1.174-.905 1.819-1.781 1.819-.231 0-.587-.068-.905-.279-.26-.164-.462-.376-.577-.607h-1.155c.25.876 1.116 1.742 2.598 1.742.905 0 1.723-.394 2.205-.952.385-.443.616-1.03.616-1.945zm-4.592 2.608c0-1.078.819-1.819 1.81-1.819.635 0 1.088.25 1.376.616.289.356.424.828.424 1.242-.01.51-.202.962-.51 1.28-.318.327-.761.529-1.29.529-1.107 0-1.81-.857-1.81-1.838z"/><path d="m149.284 153.883h-1.001v.924c-.24-.501-.905-1.078-1.944-1.078-1.521 0-2.685 1.174-2.685 2.772 0 1.463 1.001 2.772 2.685 2.772.828 0 1.578-.366 1.944-1.069v.915h1.001zm-4.629 2.627c0-.981.712-1.848 1.809-1.848.837 0 1.425.472 1.675 1.078.115.241.163.51.154.78-.01.269-.068.539-.183.78-.26.596-.828 1.039-1.627 1.039-1.27 0-1.819-1.039-1.828-1.819z"/><path d="m150.978 159.119h1.001v-4.457h1.011v-.779h-1.011v-1.887h-1.001v1.887h-.943v.779h.943z"/><path d="m153.442 156.501c0 1.405 1.03 2.762 2.791 2.762 1.762 0 2.792-1.357 2.792-2.762 0-1.406-1.03-2.772-2.792-2.772-1.761 0-2.791 1.366-2.791 2.762zm1.001 0c0-1.049.789-1.829 1.79-1.829s1.791.78 1.791 1.829-.79 1.828-1.791 1.828-1.79-.779-1.79-1.819z"/><path d="m162.49 157.155c.009-.356.057-.741.731-1.386.53-.5 1.107-1.03 1.107-1.867 0-1.068-.876-2.041-2.185-2.041-1.126 0-2.233.751-2.319 2.108 0 .068-.01.125 0 .212h1.097c0-.077.009-.154.019-.241.087-.644.558-1.029 1.155-1.029.674 0 1.088.481 1.088 1.087-.01.501-.318.818-.809 1.309-.722.693-.924 1.194-.943 1.848zm-.01.712h-1.049v1.252h1.049z"/></g></g></svg>

<?xml version="1.0" encoding="UTF-8" standalone="no"?>
<!DOCTYPE svg PUBLIC "-//W3C//DTD SVG 1.1//EN" "http://www.w3.org/Graphics/SVG/1.1/DTD/svg11.dtd">
<svg width="100%" height="100%" viewBox="0 0 99 57" version="1.1" xmlns="http://www.w3.org/2000/svg" xmlns:xlink="http://www.w3.org/1999/xlink" xml:space="preserve" xmlns:serif="http://www.serif.com/" style="fill-rule:evenodd;clip-rule:evenodd;stroke-miterlimit:10;">
    <g transform="matrix(1,0,0,1,-79,-118)">
        <g id="dialogo">
            <path d="M160.654,145.123L107.336,145.123C107.292,138.687 109.183,132.283 111.065,126.07C105.939,131.724 101.703,138.18 98.534,145.123L96.413,145.123C91.107,145.123 86.766,149.464 86.766,154.769L86.766,157.291C86.766,162.596 91.107,166.937 96.413,166.937L160.654,166.937C165.959,166.937 170.3,162.596 170.3,157.291L170.3,154.769C170.3,149.464 165.959,145.123 160.654,145.123Z" style="fill:white;fill-rule:nonzero;stroke:rgb(35,31,32);stroke-width:1.44px;"/>
            <g>
                <path d="M94.422,155.134L95.471,155.134L95.471,153.883L94.422,153.883L94.422,155.134ZM94.412,155.856C94.402,156.212 94.354,156.597 93.681,157.242C93.151,157.733 92.574,158.272 92.574,159.109C92.574,160.168 93.45,161.14 94.759,161.14C95.885,161.14 96.992,160.399 97.078,159.032L97.078,158.82L95.981,158.82C95.981,158.897 95.971,158.984 95.962,159.061C95.865,159.715 95.403,160.1 94.807,160.1C94.133,160.1 93.719,159.61 93.719,159.003C93.729,158.512 94.037,158.195 94.528,157.704C95.249,157.011 95.452,156.51 95.471,155.856L94.412,155.856Z" style="fill:rgb(35,31,32);fill-rule:nonzero;"/>
                <path d="M97.839,157.011C97.858,158.387 98.763,159.253 100.177,159.253C101.698,159.253 102.478,158.252 102.478,157.097C102.478,155.942 101.65,155.49 100.765,155.115C99.619,154.691 99.09,154.518 99.09,153.825C99.09,153.219 99.59,152.824 100.168,152.824C100.986,152.824 101.159,153.44 101.236,153.825L102.353,153.825C102.266,152.362 101.121,151.861 100.206,151.861C99.09,151.861 97.954,152.583 97.964,153.912C97.964,155.249 99.205,155.663 99.764,155.846C100.678,156.183 101.352,156.366 101.352,157.155C101.352,157.79 100.803,158.291 100.168,158.291C99.792,158.291 99.042,158.079 98.965,157.011L97.839,157.011Z" style="fill:rgb(35,31,32);fill-rule:nonzero;"/>
                <path d="M108.561,156.818C108.647,155.942 108.388,155.124 107.772,154.499C107.271,154.008 106.588,153.729 105.837,153.729C104.249,153.729 103.075,155.009 103.075,156.51C103.075,157.896 104.133,159.273 105.847,159.273C106.376,159.273 106.896,159.128 107.338,158.83C107.781,158.541 108.147,158.108 108.397,157.531L107.358,157.531C107.069,158.079 106.549,158.416 105.847,158.416C105.057,158.416 104.133,157.877 104.085,156.818L108.561,156.818ZM104.104,156.039C104.153,155.326 104.817,154.585 105.837,154.585C106.828,154.566 107.521,155.346 107.569,156.039L104.104,156.039Z" style="fill:rgb(35,31,32);fill-rule:nonzero;"/>
                <path d="M109.543,159.119L110.544,159.119L110.544,156.289C110.544,155.249 111.034,154.73 111.978,154.73L112.045,154.73L112.045,153.729C111.333,153.738 110.784,154.037 110.486,154.653L110.486,153.883L109.543,153.883L109.543,159.119Z" style="fill:rgb(35,31,32);fill-rule:nonzero;"/>
                <path d="M118.109,153.883L117.108,153.883L117.108,154.807C116.867,154.306 116.203,153.729 115.164,153.729C113.643,153.729 112.478,154.903 112.478,156.501C112.478,157.964 113.479,159.273 115.164,159.273C115.991,159.273 116.742,158.907 117.108,158.204L117.108,159.119L118.109,159.119L118.109,153.883ZM113.479,156.51C113.479,155.529 114.191,154.662 115.289,154.662C116.126,154.662 116.713,155.134 116.963,155.74C117.079,155.981 117.127,156.25 117.117,156.52C117.108,156.789 117.05,157.059 116.935,157.3C116.675,157.896 116.107,158.339 115.308,158.339C114.037,158.339 113.489,157.3 113.479,156.52L113.479,156.51ZM114.249,152.66L114.557,153.276L116.886,152.102L116.55,151.371L114.249,152.66Z" style="fill:rgb(35,31,32);fill-rule:nonzero;"/>
                <path d="M127.089,153.883L126.088,153.883L126.088,156.809C126.088,157.704 125.636,158.329 124.654,158.339C123.624,158.339 123.258,157.665 123.258,156.722L123.258,153.883L122.257,153.883L122.257,156.953C122.257,158.041 122.69,159.263 124.375,159.273C125.308,159.282 125.895,158.849 126.146,158.31L126.146,159.119L127.089,159.119L127.089,153.883Z" style="fill:rgb(35,31,32);fill-rule:nonzero;"/>
                <path d="M128.398,159.119L129.399,159.119L129.399,156.202C129.399,155.298 129.851,154.682 130.833,154.672C131.853,154.662 132.219,155.336 132.219,156.279L132.219,159.119L133.23,159.119L133.23,156.048C133.23,154.961 132.787,153.748 131.112,153.729C130.179,153.719 129.591,154.152 129.341,154.691L129.341,153.883L128.398,153.883L128.398,159.119Z" style="fill:rgb(35,31,32);fill-rule:nonzero;"/>
                <path d="M142.653,153.883L141.652,153.883L141.652,154.768C141.363,154.191 140.641,153.729 139.765,153.729C138.244,153.729 137.06,154.884 137.06,156.52C137.06,158.079 138.196,159.273 139.765,159.273C140.708,159.273 141.344,158.782 141.652,158.195L141.652,158.734C141.652,159.908 140.747,160.553 139.871,160.553C139.64,160.553 139.284,160.485 138.966,160.274C138.706,160.11 138.504,159.898 138.389,159.667L137.234,159.667C137.484,160.543 138.35,161.409 139.832,161.409C140.737,161.409 141.555,161.015 142.037,160.457C142.422,160.014 142.653,159.427 142.653,158.512L142.653,153.883ZM138.061,156.491C138.061,155.413 138.88,154.672 139.871,154.672C140.506,154.672 140.959,154.922 141.247,155.288C141.536,155.644 141.671,156.116 141.671,156.53C141.661,157.04 141.469,157.492 141.161,157.81C140.843,158.137 140.4,158.339 139.871,158.339C138.764,158.339 138.061,157.482 138.061,156.501L138.061,156.491Z" style="fill:rgb(35,31,32);fill-rule:nonzero;"/>
                <path d="M149.284,153.883L148.283,153.883L148.283,154.807C148.043,154.306 147.378,153.729 146.339,153.729C144.818,153.729 143.654,154.903 143.654,156.501C143.654,157.964 144.655,159.273 146.339,159.273C147.167,159.273 147.917,158.907 148.283,158.204L148.283,159.119L149.284,159.119L149.284,153.883ZM144.655,156.51C144.655,155.529 145.367,154.662 146.464,154.662C147.301,154.662 147.889,155.134 148.139,155.74C148.254,155.981 148.302,156.25 148.293,156.52C148.283,156.789 148.225,157.059 148.11,157.3C147.85,157.896 147.282,158.339 146.483,158.339C145.213,158.339 144.664,157.3 144.655,156.52L144.655,156.51Z" style="fill:rgb(35,31,32);fill-rule:nonzero;"/>
                <path d="M150.978,159.119L151.979,159.119L151.979,154.662L152.99,154.662L152.99,153.883L151.979,153.883L151.979,151.996L150.978,151.996L150.978,153.883L150.035,153.883L150.035,154.662L150.978,154.662L150.978,159.119Z" style="fill:rgb(35,31,32);fill-rule:nonzero;"/>
                <path d="M153.442,156.501C153.442,157.906 154.472,159.263 156.233,159.263C157.995,159.263 159.025,157.906 159.025,156.501C159.025,155.095 157.995,153.729 156.233,153.729C154.472,153.729 153.442,155.095 153.442,156.491L153.442,156.501ZM154.443,156.501C154.443,155.452 155.232,154.672 156.233,154.672C157.234,154.672 158.024,155.452 158.024,156.501C158.024,157.55 157.234,158.329 156.233,158.329C155.232,158.329 154.443,157.55 154.443,156.51L154.443,156.501Z" style="fill:rgb(35,31,32);fill-rule:nonzero;"/>
                <path d="M162.49,157.155C162.499,156.799 162.547,156.414 163.221,155.769C163.751,155.269 164.328,154.739 164.328,153.902C164.328,152.834 163.452,151.861 162.143,151.861C161.017,151.861 159.91,152.612 159.824,153.969C159.824,154.037 159.814,154.094 159.824,154.181L160.921,154.181C160.921,154.104 160.93,154.027 160.94,153.94C161.027,153.296 161.498,152.911 162.095,152.911C162.769,152.911 163.183,153.392 163.183,153.998C163.173,154.499 162.865,154.816 162.374,155.307C161.652,156 161.45,156.501 161.431,157.155L162.49,157.155ZM162.48,157.867L161.431,157.867L161.431,159.119L162.48,159.119L162.48,157.867Z" style="fill:rgb(35,31,32);fill-rule:nonzero;"/>
            </g>
        </g>
    </g>
</svg>
